X: 173
T: Kind Bacchus
T: Longways for &c.
%R: jig
B: Daniel Wright "Wright's Compleat Collection of Celebrated Country Dances" 1740 p.87
S: http://library.efdss.org/cgi-bin/dancebooks.cgi
Z: 2014 John Chambers <jc:trillian.mit.edu>
N: Repeats modified to match the "Each strain twice" instruction.
M: 6/8
L: 1/8
K: Dm
% - - - - - - - - - - - - - - - - - - - - - - - - -
|:\
dAf fed | eAg- gfe |\
fed ed^c | dAG FED ::\
fga agf | efg- gfe |
fed cBA | GFE F2A |\
Ac_e d2c | =Bdf ed^c |\
egb agf | ed^c d3 :|
% - - - - - - - - - - - - - - - - - - - - - - - - -
%%center Each strain twice.
%%begintext align
%% The 1st Man turns the 2d Wo. with his right hand
%% and his partner with his left, and both cast off .|
%% then the 1st Wo. turns the 2d Man with her right-hand
%% and her partner with her left and both cast up :|
%% the 1st Man change places with the 2d Wo., the 1st Wo.
%% with the 2d Man, then hands all four half round and
%% cast off, then the two Men back to back, the We. do the
%% same at the same time .| then back to each with
%% his own partner, then right and left quite round, and
%% lead thro' the 3d Cu. & cast up and turn their partner :|
%%endtext
% - - - - - - - - - - - - - - - - - - - - - - - - -
%%sep 2 4 300
